svg/color/nu.svg

<svg width="64" height="65" viewBox="0 0 64 65" fill="none" xmlns="http://www.w3.org/2000/svg">
<rect y="0.303711" width="64" height="64" rx="32" fill="#1E65F3"/>
<rect x="0.5" y="0.803711" width="63" height="63" rx="31.5" stroke="#070B14" stroke-opacity="0.15"/>
<path d="M41.2908 21.4705L38.3266 22.8738C38.3143 22.8799 38.2959 22.8922 38.2898 22.9044C38.2775 22.9167 38.2714 22.929 38.2652 22.9473C38.2591 22.9657 38.2591 22.978 38.2591 22.9964C38.2591 23.0148 38.2652 23.027 38.2714 23.0454L42.776 32.5257C44.4514 36.0555 44.0034 38.7274 41.4565 39.9408C39.3945 40.9152 37.6208 40.2349 36.2338 37.8572L30.8945 26.6242C28.7343 22.071 25.7885 20.8638 22.2903 22.5245C20.0196 23.6031 18.7001 25.5273 18.7246 27.9724C18.7246 28.0031 18.7185 28.0276 18.7001 28.0521C18.6817 28.0766 18.6571 28.0889 18.6264 28.095C18.5958 28.1011 18.5712 28.1011 18.5405 28.0889C18.516 28.0766 18.4914 28.0582 18.4792 28.0276L17.3131 25.5763C17.307 25.5641 17.2947 25.5457 17.2824 25.5396C17.2701 25.5273 17.2579 25.5212 17.2395 25.515C17.2272 25.5028 17.2149 25.5028 17.1965 25.5028C17.1781 25.5028 17.1658 25.5089 17.1474 25.515L14.1893 26.9184C14.1586 26.9307 14.1341 26.9552 14.1279 26.9919C14.1157 27.0226 14.1157 27.0593 14.1341 27.09L22.3149 44.3163C22.3271 44.3469 22.3578 44.3714 22.3885 44.3837C22.4192 44.396 22.456 44.396 22.4867 44.3776L25.4509 42.9742C25.4632 42.9681 25.4816 42.9558 25.4877 42.9436C25.5 42.9313 25.5062 42.9191 25.5123 42.9007C25.5184 42.8823 25.5184 42.87 25.5184 42.8517C25.5184 42.8333 25.5123 42.821 25.5062 42.8026L21.1243 33.5859C19.3384 29.8232 19.6759 27.1022 22.4069 25.8092C24.5058 24.8164 26.1383 25.4844 27.605 28.0337C27.605 28.0337 27.6112 28.0399 27.6112 28.046L32.8952 39.1625C34.9328 43.4522 38.0995 44.923 41.4381 43.3419C44.0218 42.1163 45.0958 40.2778 45.0283 37.8511C45.0283 37.8204 45.0345 37.7959 45.0529 37.7714C45.0713 37.7469 45.0958 37.7346 45.1265 37.7285C45.1572 37.7224 45.1818 37.7224 45.2124 37.7346C45.237 37.7469 45.2615 37.7653 45.2738 37.7959L46.4521 40.2717C46.4583 40.2839 46.4705 40.3023 46.4828 40.3085C46.4951 40.3207 46.5074 40.3268 46.5258 40.333C46.5442 40.3391 46.5565 40.3391 46.5749 40.3391C46.5933 40.3391 46.6056 40.333 46.624 40.3268L49.5882 38.9235C49.6005 38.9174 49.6189 38.9051 49.625 38.8929C49.6373 38.8806 49.6434 38.8683 49.6496 38.85C49.6557 38.8316 49.6557 38.8193 49.6557 38.8009C49.6557 38.7825 49.6496 38.7703 49.6434 38.7519L41.4565 21.5317C41.4442 21.5011 41.4136 21.4766 41.3829 21.4643C41.3522 21.4521 41.3154 21.4582 41.2908 21.4705Z" fill="white"/>
</svg>

<svg xmlns="http://www.w3.org/2000/svg" width="64" height="65" fill="none" viewBox="0 0 64 65"><rect width="64" height="64" y=".304" fill="#1E65F3" rx="32"/><rect width="63" height="63" x=".5" y=".804" stroke="#070B14" stroke-opacity=".15" rx="31.5"/><path fill="#fff" d="m41.29 21.47-2.963 1.404c-.013.006-.031.018-.037.03a.1.1 0 0 0-.025.043c-.006.019-.006.031-.006.05 0 .018.006.03.012.048l4.505 9.48c1.675 3.53 1.227 6.202-1.32 7.416-2.062.974-3.835.294-5.222-2.084l-5.34-11.233c-2.16-4.553-5.105-5.76-8.604-4.1-2.27 1.08-3.59 3.003-3.565 5.448q.001.045-.025.08a.1.1 0 0 1-.074.043.14.14 0 0 1-.085-.006.12.12 0 0 1-.062-.061l-1.166-2.452c-.006-.012-.018-.03-.03-.036a.1.1 0 0 0-.044-.025c-.012-.012-.024-.012-.043-.012s-.03.006-.049.012l-2.958 1.403a.1.1 0 0 0-.061.074.11.11 0 0 0 .006.098l8.18 17.226c.013.03.044.055.075.068.03.012.067.012.098-.006l2.964-1.404a.1.1 0 0 0 .037-.03.1.1 0 0 0 .024-.043c.006-.019.006-.031.006-.05 0-.018-.006-.03-.012-.048l-4.382-9.217c-1.786-3.763-1.448-6.484 1.283-7.777 2.099-.993 3.731-.325 5.198 2.225 0 0 .006.006.006.012l5.284 11.117c2.038 4.29 5.204 5.76 8.543 4.179 2.584-1.226 3.658-3.064 3.59-5.49q-.001-.046.025-.08a.1.1 0 0 1 .074-.044.14.14 0 0 1 .085.007.12.12 0 0 1 .062.06l1.178 2.477c.006.012.019.03.03.037a.1.1 0 0 0 .044.024c.018.006.03.006.049.006.018 0 .03-.006.049-.012l2.964-1.404a.1.1 0 0 0 .037-.03.1.1 0 0 0 .025-.043c.006-.018.006-.03.006-.05 0-.017-.006-.03-.013-.048l-8.187-17.22a.13.13 0 0 0-.073-.068.12.12 0 0 0-.092.007"/></svg>
